X: 42339
T: Wee Totum Fogg
R: three-two
M: 3/2
K: Dmajor
|:d/e/f/g/ ad fd|ce eg fe|d/e/f/g/ ad fd|Ad df ed:|
|:d2 c2 Bd|cA Ac BA|g2 f2 eg|fd df ed:|

